!!!!SEGMENT: pl-sa--l-1636--006_anonim--preludium.krn
!!!cenid: 17xx:713
!!!COM: Anonim
!!!COM-rismid: pe30004985
!!!CDT:
!!!CNT:
!!!OTL: Preludium
!!!PDT:
!!!AGN: Secular; Prelude
!!!SMS-siglum: PL-SA
!!!SMS-shelfmark: L 1636
!!!SMS-shelfwork: 006 W
!!!SMS-variant:
!!!SMS-altvar:
!!!NIFC-rismid: 1001076317
!!!URL-scan: http://repozytorium.nifc.pl/skany/pl-sa-nut--l1636
!!!ONB-nifc: 2r, skan 0005, s. 3-4
**kern	**kern
*part2	*part1
*staff2	*staff1
*Iempty	*Iempty
*I"	*I"
*clefF4	*clefC1
*k[]	*k[]
*C:	*C:
*M3/2	*M3/2
=1	=1
*all\right	*all\right
1.r	2g/
.	2g/
.	2d/
*clefC4	*
=2	=2
*2\right	*
2c\	4e/
.	4d/
2c\	4e/
.	4f#X/
2G\	2g/
=3	=3
4A\	1fn
4G\	.
4A\	.
4B\	.
2c\	2e/
=4	=4
1B	(>2.dM/
.	4d/
2A\	4e/
.	4f#X/)
=5	=5
!	!LO:TX:a:t=P:problem:druga ligatura od dołu
2.G/	[2g\
.	2g\]
4G/	.
4A/	2f/
4B/	.
=6	=6
4c\	1e
4G\	.
4A\	.
4B\	.
2c\	2e/
=7	=7
*	*^
2G/	1d	1B
2G/	.	.
*	*	*2\right
2C/	2e/	[>2c\
*	*v	*v
=8	=8
4E/	4c/]
4D/	4B/
4E/	4c/
4F/	4A/
4G/	4B/
4E/	4c/
!!LO:LB:g=original
=9	=9
1F	4A/
.	4B/
.	4c/
.	4d/
2C/	2e/
=10	=10
4G/	1.d 1.B
4D/	.
4G/	.
4F/	.
4E/	.
4D/	.
*clefF4	*
=11	=11
*	*^
2C/	2g 2e 2c/	1ryy
2C/	2g 2e 2c/	.
2GG/	2d/	2B\
=12	=12	=12
4AA/	1f	4c\
4GG/	.	4B\
4AA/	.	4c\
4BB/	.	4d\
2C/	2e/	2c\
=13	=13	=13
!	!	!LO:N:vis=2
4G\	1d	1B
4F\	.	.
4E\	.	.
4D\	.	.
4C/	2e/	2c\
4D/	.	.
=14	=14	=14
2E\	2e/	1c
4F\	2d/	.
4D\	.	.
!	!LO:N:vis=2	!
4G\	4f 4d/	2B\
4GG/	4f/	.
*	*v	*v
=15	=15
1.C 1.GG 1.CC	1.e 1.c 1.G
==	==
*-	*-
!!!system-decoration: {s1,s2}
!!!RDF**kern: > = above
!!!RDF**kern: < = below
!!!AIN: 2 empty
!!!ENC: Marta Lawrence
!!!END: 2020-12-07
!!!ENC: Andrzej Borzym
!!!END: 2020-06-11
